images/9903.svg

<?xml version="1.0" encoding="UTF-8"?>
<svg xmlns="http://www.w3.org/2000/svg" xmlns:xlink="http://www.w3.org/1999/xlink" width="300pt" height="300pt" viewBox="0 0 300 300" version="1.1">
<defs>
<g>
<symbol overflow="visible" id="glyph0-0">
<path style="stroke:none;" d="M 0.453125 1.59375 L 0.453125 -6.34375 L 4.953125 -6.34375 L 4.953125 1.59375 Z M 0.953125 1.09375 L 4.453125 1.09375 L 4.453125 -5.84375 L 0.953125 -5.84375 Z M 0.953125 1.09375 "/>
</symbol>
<symbol overflow="visible" id="glyph0-1">
<path style="stroke:none;" d="M 3.546875 -5.953125 C 2.898438 -5.953125 2.382812 -5.710938 2 -5.234375 C 1.625 -4.753906 1.4375 -4.101562 1.4375 -3.28125 C 1.4375 -2.445312 1.625 -1.789062 2 -1.3125 C 2.382812 -0.832031 2.898438 -0.59375 3.546875 -0.59375 C 4.191406 -0.59375 4.703125 -0.832031 5.078125 -1.3125 C 5.453125 -1.789062 5.640625 -2.445312 5.640625 -3.28125 C 5.640625 -4.101562 5.453125 -4.753906 5.078125 -5.234375 C 4.703125 -5.710938 4.191406 -5.953125 3.546875 -5.953125 Z M 3.546875 -6.6875 C 4.460938 -6.6875 5.195312 -6.375 5.75 -5.75 C 6.300781 -5.132812 6.578125 -4.3125 6.578125 -3.28125 C 6.578125 -2.238281 6.300781 -1.410156 5.75 -0.796875 C 5.195312 -0.179688 4.460938 0.125 3.546875 0.125 C 2.617188 0.125 1.878906 -0.179688 1.328125 -0.796875 C 0.773438 -1.410156 0.5 -2.238281 0.5 -3.28125 C 0.5 -4.3125 0.773438 -5.132812 1.328125 -5.75 C 1.878906 -6.375 2.617188 -6.6875 3.546875 -6.6875 Z M 3.546875 -6.6875 "/>
</symbol>
<symbol overflow="visible" id="glyph0-2">
<path style="stroke:none;" d="M 0.890625 -6.5625 L 1.765625 -6.5625 L 1.765625 -3.875 L 5 -3.875 L 5 -6.5625 L 5.890625 -6.5625 L 5.890625 0 L 5 0 L 5 -3.125 L 1.765625 -3.125 L 1.765625 0 L 0.890625 0 Z M 0.890625 -6.5625 "/>
</symbol>
</g>
</defs>
<g id="surface43693">
<rect x="0" y="0" width="300" height="300" style="fill:rgb(100%,100%,100%);fill-opacity:1;stroke:none;"/>
<path style=" stroke:none;fill-rule:nonzero;fill:rgb(0%,0%,0%);fill-opacity:1;" d="M 84.964844 131.789062 L 68.160156 114.027344 L 63.09375 120.851562 Z M 84.964844 131.789062 "/>
<path style="fill:none;stroke-width:1.2;stroke-linecap:butt;stroke-linejoin:miter;stroke:rgb(0%,0%,0%);stroke-opacity:1;stroke-miterlimit:10;" d="M 84.964844 131.789062 L 82.203125 155.714844 "/>
<path style="fill:none;stroke-width:1.2;stroke-linecap:butt;stroke-linejoin:miter;stroke:rgb(0%,0%,0%);stroke-opacity:1;stroke-miterlimit:10;" d="M 84.964844 131.789062 L 107.0625 122.21875 "/>
<path style="fill:none;stroke-width:1.2;stroke-linecap:butt;stroke-linejoin:miter;stroke:rgb(0%,0%,0%);stroke-opacity:1;stroke-miterlimit:10;" d="M 82.203125 155.714844 L 60.105469 165.285156 "/>
<path style="fill:none;stroke-width:1.2;stroke-linecap:butt;stroke-linejoin:miter;stroke:rgb(0%,0%,0%);stroke-opacity:1;stroke-miterlimit:10;" d="M 60.105469 165.285156 L 57.347656 189.207031 "/>
<path style="fill:none;stroke-width:1.2;stroke-linecap:butt;stroke-linejoin:miter;stroke:rgb(0%,0%,0%);stroke-opacity:1;stroke-miterlimit:10;" d="M 55.660156 191.480469 L 65.328125 198.65625 "/>
<path style="fill:none;stroke-width:1.2;stroke-linecap:butt;stroke-linejoin:miter;stroke:rgb(100%,0%,0%);stroke-opacity:1;stroke-miterlimit:10;" d="M 65.328125 198.65625 L 74.996094 205.832031 "/>
<path style="fill:none;stroke-width:1.2;stroke-linecap:butt;stroke-linejoin:miter;stroke:rgb(0%,0%,0%);stroke-opacity:1;stroke-miterlimit:10;" d="M 59.035156 186.933594 L 68.703125 194.109375 "/>
<path style="fill:none;stroke-width:1.2;stroke-linecap:butt;stroke-linejoin:miter;stroke:rgb(100%,0%,0%);stroke-opacity:1;stroke-miterlimit:10;" d="M 68.703125 194.109375 L 78.375 201.285156 "/>
<path style="fill:none;stroke-width:1.2;stroke-linecap:butt;stroke-linejoin:miter;stroke:rgb(0%,0%,0%);stroke-opacity:1;stroke-miterlimit:10;" d="M 57.347656 189.207031 L 46.296875 193.992188 "/>
<path style="fill:none;stroke-width:1.2;stroke-linecap:butt;stroke-linejoin:miter;stroke:rgb(100%,0%,0%);stroke-opacity:1;stroke-miterlimit:10;" d="M 46.296875 193.992188 L 35.25 198.777344 "/>
<path style=" stroke:none;fill-rule:nonzero;fill:rgb(100%,100%,100%);fill-opacity:1;" d="M 72.683594 198.058594 L 80.683594 198.058594 L 80.683594 209.058594 L 72.683594 209.058594 Z M 72.683594 198.058594 "/>
<g style="fill:rgb(100%,0%,0%);fill-opacity:1;">
  <use xlink:href="#glyph0-1" x="72.683594" y="206.72168"/>
</g>
<path style=" stroke:none;fill-rule:nonzero;fill:rgb(100%,100%,100%);fill-opacity:1;" d="M 20.25 193.277344 L 35.25 193.277344 L 35.25 204.277344 L 20.25 204.277344 Z M 20.25 193.277344 "/>
<g style="fill:rgb(100%,0%,0%);fill-opacity:1;">
  <use xlink:href="#glyph0-2" x="20.25" y="201.94043"/>
  <use xlink:href="#glyph0-1" x="27.264648" y="201.94043"/>
</g>
<path style=" stroke:none;fill-rule:nonzero;fill:rgb(0%,0%,0%);fill-opacity:1;" d="M 107.0625 122.21875 L 116.453125 99.640625 L 108.160156 97.789062 Z M 107.0625 122.21875 "/>
<path style="fill:none;stroke-width:1.2;stroke-linecap:butt;stroke-linejoin:miter;stroke:rgb(0%,0%,0%);stroke-opacity:1;stroke-miterlimit:10;" d="M 127.792969 134.46875 L 107.0625 122.21875 "/>
<path style="fill:none;stroke-width:1.2;stroke-linecap:butt;stroke-linejoin:miter;stroke:rgb(0%,0%,0%);stroke-opacity:1;stroke-miterlimit:10;" d="M 112.308594 98.714844 L 136.28125 96.441406 "/>
<path style=" stroke:none;fill-rule:nonzero;fill:rgb(0%,0%,0%);fill-opacity:1;" d="M 145.851562 118.539062 L 140.179688 94.753906 L 132.378906 98.128906 Z M 145.851562 118.539062 "/>
<path style="fill:none;stroke-width:1.2;stroke-linecap:butt;stroke-linejoin:miter;stroke:rgb(0%,0%,0%);stroke-opacity:1;stroke-miterlimit:10;" d="M 145.851562 118.539062 L 127.792969 134.46875 "/>
<path style="fill:none;stroke-width:1.2;stroke-linecap:butt;stroke-linejoin:miter;stroke:rgb(0%,0%,0%);stroke-opacity:1;stroke-miterlimit:10;" d="M 168.679688 126.210938 L 145.851562 118.539062 "/>
<path style="fill:none;stroke-width:1.2;stroke-linecap:butt;stroke-linejoin:miter;stroke:rgb(0%,0%,0%);stroke-opacity:1;stroke-miterlimit:10;" d="M 127.792969 134.46875 L 132.5625 158.074219 "/>
<path style=" stroke:none;fill-rule:nonzero;fill:rgb(0%,0%,0%);fill-opacity:1;" d="M 127.792969 134.46875 L 105.707031 144.964844 L 110.632812 151.890625 Z M 127.792969 134.46875 "/>
<path style="fill:none;stroke-width:1.2;stroke-linecap:butt;stroke-linejoin:miter;stroke:rgb(0%,0%,0%);stroke-opacity:1;stroke-miterlimit:10;" d="M 132.5625 158.074219 L 155.386719 165.75 "/>
<path style=" stroke:none;fill-rule:nonzero;fill:rgb(0%,0%,0%);fill-opacity:1;" d="M 173.445312 149.816406 L 152.574219 162.5625 L 158.199219 168.933594 Z M 173.445312 149.816406 "/>
<path style="fill:none;stroke-width:1.2;stroke-linecap:butt;stroke-linejoin:miter;stroke:rgb(0%,0%,0%);stroke-opacity:1;stroke-miterlimit:10;" d="M 173.445312 149.816406 L 168.679688 126.210938 "/>
<path style="fill:none;stroke-width:1.2;stroke-linecap:butt;stroke-linejoin:miter;stroke:rgb(0%,0%,0%);stroke-opacity:1;stroke-miterlimit:10;" d="M 196.273438 157.488281 L 173.445312 149.816406 "/>
<path style="fill:none;stroke-width:1;stroke-linecap:butt;stroke-linejoin:miter;stroke:rgb(0%,0%,0%);stroke-opacity:1;stroke-miterlimit:10;" d="M 168.679688 126.210938 L 168.679688 126.210938 M 171.238281 124.648438 L 170.546875 123.867188 M 173.796875 123.085938 L 172.417969 121.519531 M 176.359375 121.523438 L 174.289062 119.175781 M 178.917969 119.957031 L 176.160156 116.832031 M 181.480469 118.394531 L 178.03125 114.484375 M 184.039062 116.832031 L 179.902344 112.140625 M 186.601562 115.265625 L 181.769531 109.792969 M 189.160156 113.703125 L 183.640625 107.449219 M 189.546875 113.46875 L 183.925781 107.09375 "/>
<path style="fill:none;stroke-width:1.2;stroke-linecap:butt;stroke-linejoin:miter;stroke:rgb(0%,0%,0%);stroke-opacity:1;stroke-miterlimit:10;" d="M 186.734375 110.28125 L 209.5625 117.953125 "/>
<path style="fill:none;stroke-width:1;stroke-linecap:butt;stroke-linejoin:miter;stroke:rgb(0%,0%,0%);stroke-opacity:1;stroke-miterlimit:10;" d="M 214.328125 141.558594 L 214.328125 141.558594 M 214.257812 138.558594 L 213.234375 138.765625 M 214.183594 135.558594 L 212.136719 135.972656 M 214.109375 132.5625 L 211.042969 133.179688 M 214.035156 129.5625 L 209.945312 130.386719 M 213.960938 126.5625 L 208.851562 127.59375 M 213.886719 123.5625 L 207.753906 124.800781 M 213.8125 120.566406 L 206.65625 122.011719 M 213.738281 117.566406 L 205.5625 119.21875 M 213.726562 117.113281 L 205.398438 118.796875 "/>
<path style="fill:none;stroke-width:1.2;stroke-linecap:butt;stroke-linejoin:miter;stroke:rgb(0%,0%,0%);stroke-opacity:1;stroke-miterlimit:10;" d="M 214.328125 141.558594 L 196.273438 157.488281 "/>
<path style="fill:none;stroke-width:1.2;stroke-linecap:butt;stroke-linejoin:miter;stroke:rgb(0%,0%,0%);stroke-opacity:1;stroke-miterlimit:10;" d="M 237.15625 149.230469 L 214.328125 141.558594 "/>
<path style="fill:none;stroke-width:1.2;stroke-linecap:butt;stroke-linejoin:miter;stroke:rgb(0%,0%,0%);stroke-opacity:1;stroke-miterlimit:10;" d="M 196.273438 157.488281 L 201.039062 181.09375 "/>
<path style=" stroke:none;fill-rule:nonzero;fill:rgb(0%,0%,0%);fill-opacity:1;" d="M 196.273438 157.488281 L 175.402344 170.234375 L 181.023438 176.609375 Z M 196.273438 157.488281 "/>
<path style="fill:none;stroke-width:1.2;stroke-linecap:butt;stroke-linejoin:miter;stroke:rgb(0%,0%,0%);stroke-opacity:1;stroke-miterlimit:10;" d="M 201.039062 181.09375 L 223.867188 188.765625 "/>
<path style="fill:none;stroke-width:1.2;stroke-linecap:butt;stroke-linejoin:miter;stroke:rgb(0%,0%,0%);stroke-opacity:1;stroke-miterlimit:10;" d="M 223.867188 188.765625 L 241.925781 172.835938 "/>
<path style="fill:none;stroke-width:1.2;stroke-linecap:butt;stroke-linejoin:miter;stroke:rgb(0%,0%,0%);stroke-opacity:1;stroke-miterlimit:10;" d="M 241.925781 172.835938 L 237.15625 149.230469 "/>
<path style="fill:none;stroke-width:1;stroke-linecap:butt;stroke-linejoin:miter;stroke:rgb(0%,0%,0%);stroke-opacity:1;stroke-miterlimit:10;" d="M 241.925781 172.835938 L 241.925781 172.835938 M 244.558594 174.273438 L 244.890625 173.285156 M 247.191406 175.707031 L 247.855469 173.730469 M 249.828125 177.144531 L 250.824219 174.175781 M 252.460938 178.578125 L 253.789062 174.625 M 255.09375 180.015625 L 256.757812 175.070312 M 257.730469 181.449219 L 259.722656 175.519531 M 260.363281 182.886719 L 262.6875 175.964844 M 262.996094 184.320312 L 265.65625 176.414062 M 263.394531 184.539062 L 266.105469 176.480469 "/>
<path style=" stroke:none;fill-rule:nonzero;fill:rgb(100%,100%,100%);fill-opacity:1;" d="M 257.75 175.007812 L 272.75 175.007812 L 272.75 186.007812 L 257.75 186.007812 Z M 257.75 175.007812 "/>
<g style="fill:rgb(100%,0%,0%);fill-opacity:1;">
  <use xlink:href="#glyph0-1" x="257.75" y="183.670898"/>
  <use xlink:href="#glyph0-2" x="265.091797" y="183.670898"/>
</g>
</g>
</svg>

<svg xmlns="http://www.w3.org/2000/svg" xmlns:xlink="http://www.w3.org/1999/xlink" width="300pt" height="300pt" viewBox="0 0 300 300"><defs><symbol overflow="visible"><path d="M.453 1.594v-7.938h4.5v7.938zm.5-.5h3.5v-6.938h-3.5zm0 0"/></symbol><symbol overflow="visible" id="a"><path d="M3.547-5.953c-.65 0-1.164.242-1.547.72-.375.48-.563 1.13-.563 1.952 0 .835.188 1.49.563 1.967.383.48.898.72 1.547.72.644 0 1.156-.24 1.53-.72.376-.476.564-1.132.564-1.968 0-.822-.187-1.474-.562-1.954-.375-.477-.887-.72-1.53-.72zm0-.734c.914 0 1.648.312 2.203.937.55.617.828 1.438.828 2.47 0 1.042-.277 1.87-.828 2.483-.555.617-1.29.922-2.203.922-.93 0-1.668-.305-2.22-.922C.774-1.41.5-2.237.5-3.28c0-1.033.273-1.853.828-2.47.55-.625 1.29-.938 2.22-.938zm0 0"/></symbol><symbol overflow="visible" id="b"><path d="M.89-6.563h.876v2.688H5v-2.688h.89V0H5v-3.125H1.766V0H.89zm0 0"/></symbol></defs><g><path fill="#fff" d="M0 0h300v300H0z"/><path d="M84.965 131.79L68.16 114.026l-5.066 6.825zm0 0"/><path d="M84.965 131.79l-2.762 23.925M84.965 131.79l22.097-9.57M82.203 155.715l-22.098 9.57M60.105 165.285l-2.757 23.922M55.66 191.48l9.668 7.176" stroke-width="1.2" stroke="#000" stroke-miterlimit="10" fill="none"/><path d="M65.328 198.656l9.668 7.176" stroke-width="1.2" stroke="#f00" stroke-miterlimit="10" fill="none"/><path d="M59.035 186.934l9.668 7.175" stroke-width="1.2" stroke="#000" stroke-miterlimit="10" fill="none"/><path d="M68.703 194.11l9.672 7.175" stroke-width="1.2" stroke="#f00" stroke-miterlimit="10" fill="none"/><path d="M57.348 189.207l-11.05 4.785" stroke-width="1.2" stroke="#000" stroke-miterlimit="10" fill="none"/><path d="M46.297 193.992l-11.047 4.785" stroke-width="1.2" stroke="#f00" stroke-miterlimit="10" fill="none"/><path d="M72.684 198.06h8v11h-8zm0 0" fill="#fff"/><use xlink:href="#a" x="72.684" y="206.722" fill="#f00"/><path d="M20.25 193.277h15v11h-15zm0 0" fill="#fff"/><g fill="#f00"><use xlink:href="#b" x="20.25" y="201.94"/><use xlink:href="#a" x="27.265" y="201.94"/></g><path d="M107.063 122.22l9.39-22.58-8.293-1.85zm0 0"/><path d="M127.793 134.47l-20.73-12.25M112.31 98.715l23.97-2.274" stroke-width="1.2" stroke="#000" stroke-miterlimit="10" fill="none"/><path d="M145.852 118.54l-5.672-23.786-7.8 3.375zm0 0"/><path d="M145.852 118.54l-18.06 15.93M168.68 126.21l-22.828-7.67M127.793 134.47l4.77 23.604" stroke-width="1.2" stroke="#000" stroke-miterlimit="10" fill="none"/><path d="M127.793 134.47l-22.086 10.495 4.926 6.926zm0 0"/><path d="M132.563 158.074l22.824 7.676" stroke-width="1.2" stroke="#000" stroke-miterlimit="10" fill="none"/><path d="M173.445 149.816l-20.87 12.746 5.624 6.372zm0 0"/><path d="M173.445 149.816l-4.765-23.605M196.273 157.488l-22.828-7.672" stroke-width="1.2" stroke="#000" stroke-miterlimit="10" fill="none"/><path d="M168.68 126.21m2.558-1.562l-.69-.78m3.25-.782l-1.38-1.566m3.94.003l-2.07-2.347m4.63.78l-2.758-3.124m5.32 1.563l-3.45-3.91m6.01 2.347l-4.138-4.69m6.7 3.124l-4.832-5.473m7.39 3.91l-5.52-6.254m5.907 6.02l-5.62-6.376" stroke="#000" stroke-miterlimit="10" fill="none"/><path d="M186.734 110.28l22.828 7.673" stroke-width="1.2" stroke="#000" stroke-miterlimit="10" fill="none"/><path d="M214.328 141.56m-.07-3l-1.024.206m.95-3.207l-2.047.413m1.972-3.41l-3.067.617m2.992-3.618l-4.09.825m4.016-3.825l-5.108 1.032m5.035-4.03l-6.133 1.237m6.06-4.234l-7.158 1.446m7.082-4.446l-8.175 1.653m8.164-2.107l-8.33 1.684" stroke="#000" stroke-miterlimit="10" fill="none"/><path d="M214.328 141.56l-18.055 15.928M237.156 149.23l-22.828-7.67M196.273 157.488l4.766 23.606" stroke-width="1.2" stroke="#000" stroke-miterlimit="10" fill="none"/><path d="M196.273 157.488l-20.87 12.746 5.62 6.375zm0 0"/><path d="M201.04 181.094l22.827 7.672M223.867 188.766l18.06-15.93M241.926 172.836l-4.77-23.606" stroke-width="1.2" stroke="#000" stroke-miterlimit="10" fill="none"/><path d="M241.926 172.836m2.633 1.437l.33-.988m2.3 2.422l.665-1.977m1.973 3.415l.996-2.97m1.637 4.403l1.33-3.953m1.304 5.39l1.664-4.945m.972 6.38l1.993-5.93m.64 7.367l2.325-6.922m.308 8.355l2.66-7.906m-2.26 8.125l2.71-8.06" stroke="#000" stroke-miterlimit="10" fill="none"/><path d="M257.75 175.008h15v11h-15zm0 0" fill="#fff"/><g fill="#f00"><use xlink:href="#a" x="257.75" y="183.671"/><use xlink:href="#b" x="265.092" y="183.671"/></g></g></svg>
